X: 257
P: Longways for as many as will
M: C|
L: 1/8
K: G
b2 | g2b2 g2b2 | a2(gf) e3f | g2fe d2B2 |
d6 f2 | g3f (ed) (cB) | (AB) cd e3g |\
d2cB A2G2 | c6 d2 | e2fg (fg) ag | g6 |]

